source/img/logo.svg

<svg opacity=".3" xmlns="http://www.w3.org/2000/svg" viewBox="0 0 40 55"><path fill-rule="evenodd" clip-rule="evenodd" fill="#EBF4FF" d="M30.8 20.1c1 .1 1.8-.7 1.9-1.7s-.7-1.8-1.6-1.9c-1-.1-1.8.7-1.9 1.7-.1 1 .6 1.8 1.6 1.9zm-4.8.5c1.2.1 2.3-1.1 2.4-2.6.1-1.5-.8-2.8-2-2.9-1.2-.1-2.3 1.1-2.4 2.6-.1 1.5.8 2.8 2 2.9zm8.3 1.4c.9.1 1.6-.6 1.7-1.5.1-.9-.6-1.6-1.5-1.7-.9-.1-1.6.6-1.7 1.5 0 .8.7 1.6 1.5 1.7zm2.8 2.2c.8.1 1.4-.5 1.5-1.3.1-.8-.5-1.4-1.3-1.5-.8-.1-1.4.5-1.5 1.3 0 .7.6 1.4 1.3 1.5zm1.8.5c-.7 0-1.2.4-1.3 1.1 0 .7.4 1.2 1.1 1.3.7 0 1.2-.4 1.3-1.1s-.5-1.3-1.1-1.3zm-10.7-2.8s.1 0 0 0zm0 0c-2.2-.2-3.5.9-3.6 2.8-.1 1.5.2 3.1 1.5 4.7 1.7 2 4.6 4.1 4.4 6.8-.1 1.5-.5 4.3-2.7 6.3-2.8 2.5-4.4 4.8-4.6 7.4-.2 2.6 1.4 4.9 4.4 5.1 3 .2 4.9-1.8 5.1-5.2.2-3.4.3-6.6 2.1-9.9 1.7-3.3 2.6-4.8 3.1-5.9.5-1.1.5-1.9.6-2.6.2-2.3-1.4-4.1-2.3-5.1-2.5-2.8-5-4.2-8-4.4zM9.5 4.8c1 0 1.8-.8 1.8-1.8s-.8-1.8-1.8-1.8S7.8 2 7.8 3s.8 1.8 1.7 1.8zM14.3 0c-1.2 0-2.2 1.3-2.2 2.8 0 1.5 1 2.8 2.2 2.8 1.2 0 2.2-1.3 2.2-2.8 0-1.5-1-2.8-2.2-2.8zM5.9 6.4c.9 0 1.6-.7 1.6-1.6s-.7-1.6-1.6-1.6c-.9 0-1.6.7-1.6 1.6 0 .9.7 1.6 1.6 1.6zm-3 2c.8 0 1.4-.6 1.4-1.4 0-.8-.6-1.4-1.4-1.4-.7 0-1.3.6-1.3 1.4 0 .8.6 1.4 1.3 1.4zM2.4 10c0-.7-.5-1.2-1.2-1.2S0 9.3 0 10s.5 1.2 1.2 1.2c.6 0 1.2-.5 1.2-1.2zm11.1 4.4c1.5-1.5 1.9-3 1.9-4.6 0-1.9-1.1-3-3.4-3-3 0-5.6 1.2-8.3 3.8-.9 1-2.6 2.7-2.6 4.9 0 .8 0 1.5.4 2.7.4 1.1 1.1 2.7 2.6 6.1 1.5 3.4 1.4 6.6 1.4 10 0 3.4 1.7 5.6 4.7 5.5 3 0 4.7-2.1 4.7-4.8 0-2.7-1.4-5.1-4.1-7.7-2.1-2.1-2.3-4.9-2.3-6.4.2-2.7 3.2-4.6 5-6.5zm-1.7-7.6c-.2 0-.1 0 0 0zm.2 0h-.2.2z"/></svg>

<?xml version="1.0" encoding="utf-8"?>
<!-- Generator: Adobe Illustrator 17.1.0, SVG Export Plug-In . SVG Version: 6.00 Build 0)  -->
<!DOCTYPE svg PUBLIC "-//W3C//DTD SVG 1.1//EN" "http://www.w3.org/Graphics/SVG/1.1/DTD/svg11.dtd" [
	<!ENTITY ns_extend "http://ns.adobe.com/Extensibility/1.0/">
	<!ENTITY ns_ai "http://ns.adobe.com/AdobeIllustrator/10.0/">
	<!ENTITY ns_graphs "http://ns.adobe.com/Graphs/1.0/">
	<!ENTITY ns_vars "http://ns.adobe.com/Variables/1.0/">
	<!ENTITY ns_imrep "http://ns.adobe.com/ImageReplacement/1.0/">
	<!ENTITY ns_sfw "http://ns.adobe.com/SaveForWeb/1.0/">
	<!ENTITY ns_custom "http://ns.adobe.com/GenericCustomNamespace/1.0/">
	<!ENTITY ns_adobe_xpath "http://ns.adobe.com/XPath/1.0/">
]>
<svg version="1.1" id="logo_x5F_32_x25__1_" xmlns:x="&ns_extend;" xmlns:i="&ns_ai;" xmlns:graph="&ns_graphs;" opacity="0.3"
	 xmlns="http://www.w3.org/2000/svg" xmlns:xlink="http://www.w3.org/1999/xlink" x="0px" y="0px" viewBox="0 0 40 55"
	 enable-background="new 0 0 40 55" xml:space="preserve">
<metadata>
	<sfw  xmlns="&ns_sfw;">
		<slices></slices>
		<sliceSourceBounds  width="40" height="55" x="286" y="369" bottomLeftOrigin="true"></sliceSourceBounds>
	</sfw>
</metadata>
<g id="logo_x5F_32_x25_">
	<g>
		<path fill-rule="evenodd" clip-rule="evenodd" fill="#EBF4FF" d="M30.8,20.1c1,0.1,1.8-0.7,1.9-1.7s-0.7-1.8-1.6-1.9
			c-1-0.1-1.8,0.7-1.9,1.7C29.1,19.2,29.8,20,30.8,20.1z M26,20.6c1.2,0.1,2.3-1.1,2.4-2.6c0.1-1.5-0.8-2.8-2-2.9
			c-1.2-0.1-2.3,1.1-2.4,2.6C23.9,19.2,24.8,20.5,26,20.6z M34.3,22c0.9,0.1,1.6-0.6,1.7-1.5c0.1-0.9-0.6-1.6-1.5-1.7
			c-0.9-0.1-1.6,0.6-1.7,1.5C32.8,21.1,33.5,21.9,34.3,22z M37.1,24.2c0.8,0.1,1.4-0.5,1.5-1.3c0.1-0.8-0.5-1.4-1.3-1.5
			c-0.8-0.1-1.4,0.5-1.5,1.3C35.8,23.4,36.4,24.1,37.1,24.2z M38.9,24.7c-0.7,0-1.2,0.4-1.3,1.1c0,0.7,0.4,1.2,1.1,1.3
			c0.7,0,1.2-0.4,1.3-1.1S39.5,24.7,38.9,24.7z M28.2,21.9C28.2,21.9,28.3,21.9,28.2,21.9C28.2,21.9,28.2,21.9,28.2,21.9z
			 M28.2,21.9c-2.2-0.2-3.5,0.9-3.6,2.8c-0.1,1.5,0.2,3.1,1.5,4.7c1.7,2,4.6,4.1,4.4,6.8c-0.1,1.5-0.5,4.3-2.7,6.3
			c-2.8,2.5-4.4,4.8-4.6,7.4c-0.2,2.6,1.4,4.9,4.4,5.1c3,0.2,4.9-1.8,5.1-5.2c0.2-3.4,0.3-6.6,2.1-9.9c1.7-3.3,2.6-4.8,3.1-5.9
			c0.5-1.1,0.5-1.9,0.6-2.6c0.2-2.3-1.4-4.1-2.3-5.1C33.7,23.5,31.2,22.1,28.2,21.9z M9.5,4.8c1,0,1.8-0.8,1.8-1.8
			c0-1-0.8-1.8-1.8-1.8C8.5,1.2,7.8,2,7.8,3C7.8,4,8.6,4.8,9.5,4.8z M14.3,0c-1.2,0-2.2,1.3-2.2,2.8c0,1.5,1,2.8,2.2,2.8
			c1.2,0,2.2-1.3,2.2-2.8C16.5,1.3,15.5,0,14.3,0z M5.9,6.4c0.9,0,1.6-0.7,1.6-1.6S6.8,3.2,5.9,3.2C5,3.2,4.3,3.9,4.3,4.8
			C4.3,5.7,5,6.4,5.9,6.4z M2.9,8.4c0.8,0,1.4-0.6,1.4-1.4c0-0.8-0.6-1.4-1.4-1.4C2.2,5.6,1.6,6.2,1.6,7C1.6,7.8,2.2,8.4,2.9,8.4z
			 M2.4,10c0-0.7-0.5-1.2-1.2-1.2C0.5,8.8,0,9.3,0,10c0,0.7,0.5,1.2,1.2,1.2C1.8,11.2,2.4,10.7,2.4,10z M13.5,14.4
			c1.5-1.5,1.9-3,1.9-4.6c0-1.9-1.1-3-3.4-3c-3,0-5.6,1.2-8.3,3.8c-0.9,1-2.6,2.7-2.6,4.9c0,0.8,0,1.5,0.4,2.7
			c0.4,1.1,1.1,2.7,2.6,6.1c1.5,3.4,1.4,6.6,1.4,10c0,3.4,1.7,5.6,4.7,5.5c3,0,4.7-2.1,4.7-4.8c0-2.7-1.4-5.1-4.1-7.7
			c-2.1-2.1-2.3-4.9-2.3-6.4C8.7,18.2,11.7,16.3,13.5,14.4z M11.8,6.8C11.6,6.8,11.7,6.8,11.8,6.8L11.8,6.8z M12,6.8
			c0,0-0.1,0-0.2,0C11.9,6.8,11.9,6.8,12,6.8z"/>
	</g>
</g>
</svg>
